!!!COM: Music21
!!!OTL: Pico
!!!OMV: pezas_pasodobles_pasodoble-pico_pasodoble-pico-partitura.musicxml
**kern
*part1
*staff1
*I"Bagpipes
*I'Bag
*clefG^2
*k[]
*M2/4
=1
!LO:TX:a:B:t=Allegretto
*MM120
!LO:TX:a:t=[quarter]=120
2cc
=
4ee
8.ccL
16eeJk
=
2gg
=
4aa
8.ggL
16ffJk
=
2gg
=
2ee
=
[4cc
8.ccL]
16eeJk
=
8.ccL
16eeJk
8.ccL
16eeJk
=
2gg
=
4aa
8.ggL
16ffJk
=
4gg
8.ffL
32ggLL
32ffJJJ
=
2ee
=||
*M2/4
!LO:TX:a:B:t=Allegretto
*MM120
!LO:TX:a:t=[quarter]=120
2cc
=
4ee
8.ccL
16eeJk
=
2gg
=
4aa
8.ggL
16ffJk
=
2gg
=
2ee
=
[4cc
8.ccL]
16eeJk
=
8.ccL
16eeJk
8.ccL
16eeJk
=
2gg
=
4aa
8.ggL
16ffJk
=
4gg
8.ffL
32ggLL
32ffJJJ
=
2ee
.
=||
4.ee
.
.
8aa
=||
8ggL
8aaJ
8ggL
8ffJ
=
4ee
8ccL
8eeJ
=
4gg
.
4ee
.
=
8gg
4ff
.
8dd
=
8ffL
8ggJ
8ffL
8eeJ
=
4dd
8bL
8ddJ
=
4ff
.
4dd
.
=
8ff
4ee
.
8aa
=
8ggL
8aaJ
8ggL
8ffJ
=
4ee
8ccL
8eeJ
=
4gg
4ff
.
=
4.aa
.
.
8ff
=
8aaL
8cccJ
8bbL
8aaJ
=
4gg
.
.
8eeL
8ggJ
=
8ffL
16eeL
16ffJJ
8ddL
8ffJ
=||
4.ee
.
.
8aa
=||
8ggL
8aaJ
8ggL
8ffJ
=
4ee
8ccL
8eeJ
=
4gg
.
4ee
.
=
8gg
4ff
.
8dd
=
8ffL
8ggJ
8ffL
8eeJ
=
4dd
8bL
8ddJ
=
4ff
.
4dd
.
=
8ff
4ee
.
8aa
=
8ggL
8aaJ
8ggL
8ffJ
=
4ee
8ccL
8eeJ
=
4gg
4ff
.
=
4.aa
.
.
8ff
=
8aaL
8cccJ
8bbL
8aaJ
=
4gg
.
.
8eeL
8ggJ
=
8ffL
16eeL
16ffJJ
8ddL
8ffJ
=||
4.ee
8aa
=
2ee
.
.
=||
2cc
=
4ee
8.ccL
16eeJk
=
2gg
=
4aa
8.ggL
16ffJk
=
2gg
.
.
=
2ee
.
.
.
=
[4cc
8.ccL]
16eeJk
=
8.ccL
16eeJk
8.ccL
16eeJk
=
2gg
.
.
.
=
4aa
8.ggL
16ffJk
=||
4gg
8.ffL
32ggLL
32ffJJJ
=
2ee
.
.
=||
2cc
=
4ee
8.ccL
16eeJk
=
2gg
=
4aa
8.ggL
16ffJk
=
2gg
.
.
=
2ee
.
.
.
=
[4cc
8.ccL]
16eeJk
=
8.ccL
16eeJk
8.ccL
16eeJk
=
2gg
.
.
.
=
4aa
8.ggL
.
16ffJk
=
4gg
8.ffL
.
32ggLL
32ffJJJ
=
2ee
.
=
4.ee
.
.
8gg
.
=
4.ccc
.
8gg
.
=||
4.cc
.
8gg
=
8.cccL
16ggJk
8.cccL
16ggJk
=
4ccc
8.cccL
16bbJk
=||
4aa
[4ff
.
=
4ff]
8.bbL
.
16aaJk
=
4gg
.
[4ee
.
=
4ee]
.
8.aaL
16ggJk
=
4ff
8ddL
8eeJ
.
=
8ffL
8eeJ
8ffL
8ggJ
=
8.eeL
.
16ffJk
[4gg
.
=
4gg]
8.cccL
16bbJk
=
4aa
.
[4ff
.
=
8ffL]
8cccJ
8bbL
8aaJ
.
=
4gg
.
[4ee
.
=
8eeL]
8ggJ
8ffL
8eeJ
=
4ff
8.ddL
16eeJk
=||
8ffL
8ggJ
8aaL
8bbJ
=
[2ccc
.
.
=
4ccc]
8.cccL
16bbJk
=||
4aa
[4ff
.
=
4ff]
8.bbL
.
16aaJk
=
4gg
.
[4ee
.
=
4ee]
.
8.aaL
16ggJk
=
4ff
8ddL
8eeJ
.
=
8ffL
8eeJ
8ffL
8ggJ
=
8.eeL
.
16ffJk
[4gg
.
=
4gg]
8.cccL
16bbJk
=
4aa
.
[4ff
.
=
8ffL]
8cccJ
8bbL
8aaJ
.
=
4gg
.
[4ee
.
=
8eeL]
8ggJ
8ffL
8eeJ
=
4ff
8.ddL
16eeJk
=||
8ffL
8ggJ
8aaL
8bbJ
==
[2ccc
=
4ccc]
8.cccL
16bbJk
=
4ccc
4gg
=
4ccc
4r
=||
*M2/4
!LO:TX:a:B:t=Allegretto
*MM120
!LO:TX:a:t=[quarter]=120
2cc
=
4ee
8.ccL
16eeJk
=
2gg
=
4aa
8.ggL
16ffJk
=
2gg
=
2ee
=
[4cc
8.ccL]
16eeJk
=
8.ccL
16eeJk
8.ccL
16eeJk
=
2gg
=
4aa
8.ggL
16ffJk
=
4gg
8.ffL
32ggLL
32ffJJJ
=
2ee
=
4.ee
8aa
=||
8ggL
8aaJ
8ggL
8ffJ
=
4ee
8ccL
8eeJ
=
4gg
4ee
=
8gg
4ff
8dd
=
8ffL
8ggJ
8ffL
8eeJ
=
4dd
8bL
8ddJ
=
4ff
4dd
=
8ff
4ee
8aa
=
8ggL
8aaJ
8ggL
8ffJ
=
4ee
8ccL
8eeJ
=
4gg
4ff
=
4.aa
8ff
=
8aaL
8cccJ
8bbL
8aaJ
=
4gg
8eeL
8ggJ
=
8ffL
16eeL
16ffJJ
8ddL
8ffJ
=
4.ee
8aa
=
2ee
=||
2cc
=
4ee
8.ccL
16eeJk
=
2gg
=
4aa
8.ggL
16ffJk
=
2gg
=
2ee
=
[4cc
8.ccL]
16eeJk
=
8.ccL
16eeJk
8.ccL
16eeJk
=
2gg
=
4aa
8.ggL
16ffJk
=
4gg
8.ffL
32ggLL
32ffJJJ
=
2ee
=
4.ee
8gg
=
4.ccc
8gg
=
4.cc
8gg
=
8.cccL
16ggJk
8.cccL
16ggJk
=
4ccc
8.cccL
16bbJk
=||
4aa
[4ff
=
4ff]
8.bbL
16aaJk
=
4gg
[4ee
=
4ee]
8.aaL
16ggJk
=
4ff
8ddL
8eeJ
=
8ffL
8eeJ
8ffL
8ggJ
=
8.eeL
16ffJk
[4gg
=
4gg]
8.cccL
16bbJk
=
4aa
[4ff
=
8ffL]
8cccJ
8bbL
8aaJ
=
4gg
[4ee
=
8eeL]
8ggJ
8ffL
8eeJ
=
4ff
8.ddL
16eeJk
=
8ffL
8ggJ
8aaL
8bbJ
=
[2ccc
=
4ccc]
8.cccL
16bbJk
=
4ccc
4gg
=
4ccc
4r
=||
8ccc
8r
4r
==
*-
!!!system-decoration: s1,s2
